src/assets/icons/logo.svg

<?xml version="1.0" encoding="UTF-8"?>
<svg fill="none" viewBox="0 0 150 150" xmlns="http://www.w3.org/2000/svg">
<g clip-path="url(#a)" fill="#fff">
<path d="m150 75c0 17.352-6.016 34.166-17.024 47.579s-26.326 22.594-43.344 25.98c-17.018 3.385-34.684 0.764-49.986-7.415-15.303-8.18-27.296-21.412-33.936-37.443-6.6402-16.031-7.5165-33.868-2.4796-50.473 5.0369-16.605 15.675-30.949 30.103-40.589 14.428-9.64 31.751-13.979 49.019-12.279 17.268 1.7008 33.413 9.3364 45.682 21.606l-11.065 11.065c-9.71-9.7095-22.485-15.752-36.151-17.098-13.665-1.3459-27.374 2.088-38.791 9.7167-11.417 7.6287-19.836 18.98-23.822 32.12-3.9859 13.14-3.2925 27.255 1.9622 39.941 5.2547 12.686 14.745 23.158 26.855 29.631s26.089 8.546 39.557 5.868c13.467-2.679 25.589-9.945 34.3-20.559 8.711-10.615 13.472-23.921 13.472-37.652h15.649z"/>
<path d="m146.41 75h-33.233v15.27h33.233v-15.27z"/>
<path d="m58.089 41.137c-2.5564 0.0357-5.082 0.5747-7.4324 1.5864-2.3503 1.012-4.4796 2.4766-6.2666 4.311-1.7867 1.8343-3.1957 4.0023-4.1467 6.3796-0.951 2.3777-1.4253 4.9184-1.3957 7.477 0.0297 2.5587 0.5624 5.0854 1.568 7.436 1.0054 2.3504 2.464 4.4784 4.2927 6.2627 1.8283 1.7843 3.991 3.19 6.364 4.1363 2.373 0.9467 4.91 1.4157 7.4663 1.3804l-0.1173-10.188c-1.2197 0.0166-2.4303-0.207-3.5627-0.6587-1.132-0.4517-2.164-1.122-3.0363-1.9733-0.8723-0.8514-1.5683-1.867-2.048-2.9884-0.48-1.1213-0.734-2.327-0.748-3.5476-0.0143-1.221 0.212-2.4334 0.6657-3.5677 0.4536-1.1343 1.126-2.1687 1.9786-3.0437 0.8524-0.8753 1.8684-1.574 2.9897-2.057 1.1217-0.4826 2.3267-0.74 3.5463-0.7566l-0.1176-10.188z"/>
<path d="m58.228 69.893c-2.5563 0.0353-5.082 0.5743-7.4323 1.5863-2.3503 1.0117-4.4797 2.4767-6.2663 4.311-1.787 1.8344-3.196 4.002-4.147 6.3797-0.951 2.3773-1.425 4.918-1.3957 7.477 0.0297 2.5587 0.5623 5.0853 1.568 7.4357 1.0053 2.3506 2.464 4.479 4.2927 6.263 1.8283 1.784 3.991 3.19 6.364 4.136 2.373 0.947 4.9103 1.416 7.4666 1.381l-0.1176-10.189c-1.2197 0.017-2.4304-0.2067-3.5627-0.6583-1.132-0.4517-2.164-1.1223-3.0363-1.9737-0.8724-0.8513-1.5684-1.8667-2.048-2.988-0.48-1.1217-0.734-2.327-0.748-3.548-0.0144-1.2206 0.212-2.433 0.6656-3.5673 0.454-1.1344 1.126-2.1687 1.9787-3.0437 0.8523-0.8753 1.8683-1.5743 2.99-2.057 1.1213-0.4827 2.3263-0.74 3.546-0.757l-0.1177-10.188z"/>
<path d="m75.912 41.046h-14.892v67.599h14.892v-67.599z"/>
<path d="m111.64 41.317h-16.381l-9.6794 16.475-9.6793 16.475 19.359 34.649h16.381l-16.381-34.649 16.381-32.951z"/>
</g>
<defs>
<clipPath id="a">
<rect width="150" height="150" fill="#fff"/>
</clipPath>
</defs>
</svg>

<svg width="150" height="150" viewBox="0 0 150 150" fill="none" xmlns="http://www.w3.org/2000/svg">
<g clip-path="url(#clip0)">
<path d="M150 74.9998C150 92.3514 143.984 109.166 132.976 122.579C121.968 135.992 106.65 145.173 89.6317 148.559C72.6137 151.944 54.948 149.323 39.6454 141.144C24.3425 132.964 12.3493 119.732 5.70905 103.701C-0.931131 87.6701 -1.80742 69.8328 3.22949 53.2284C8.26642 36.6238 18.9049 22.2796 33.3322 12.6395C47.7597 2.99949 65.0834 -1.33985 82.3513 0.360911C99.6193 2.06167 115.764 9.6973 128.033 21.9667L116.968 33.0321C107.258 23.3226 94.4827 17.2802 80.8173 15.9343C67.1523 14.5884 53.4434 18.0223 42.0264 25.651C30.6091 33.2797 22.1904 44.6311 18.2044 57.7711C14.2185 70.9111 14.9119 85.0264 20.1666 97.7124C25.4213 110.398 34.912 120.87 47.022 127.343C59.132 133.816 73.1114 135.889 86.579 133.211C100.046 130.532 112.168 123.266 120.879 112.652C129.59 102.037 134.351 88.7311 134.351 74.9998H150Z" fill="white"/>
<path d="M146.407 75H113.174V90.2695H146.407V75Z" fill="white"/>
<path d="M58.089 41.1373C55.5326 41.173 53.007 41.712 50.6566 42.7237C48.3063 43.7357 46.177 45.2003 44.39 47.0347C42.6033 48.869 41.1943 51.037 40.2433 53.4143C39.2923 55.792 38.818 58.3327 38.8476 60.8913C38.8773 63.45 39.41 65.9767 40.4156 68.3273C41.421 70.6777 42.8796 72.8057 44.7083 74.59C46.5366 76.3743 48.6993 77.78 51.0723 78.7263C53.4453 79.673 55.9823 80.142 58.5386 80.1067L58.4213 69.9187C57.2016 69.9353 55.991 69.7117 54.8586 69.26C53.7266 68.8083 52.6946 68.138 51.8223 67.2867C50.95 66.4353 50.254 65.4197 49.7743 64.2983C49.2943 63.177 49.0403 61.9713 49.0263 60.7507C49.012 59.5297 49.2383 58.3173 49.692 57.183C50.1456 56.0487 50.818 55.0143 51.6706 54.1393C52.523 53.264 53.539 52.5653 54.6603 52.0823C55.782 51.5997 56.987 51.3423 58.2066 51.3257L58.089 41.1373Z" fill="white"/>
<path d="M58.2277 69.8933C55.6714 69.9286 53.1457 70.4676 50.7954 71.4796C48.4451 72.4913 46.3157 73.9563 44.5291 75.7906C42.7421 77.625 41.3331 79.7926 40.3821 82.1703C39.4311 84.5476 38.9571 87.0883 38.9864 89.6473C39.0161 92.206 39.5487 94.7326 40.5544 97.083C41.5597 99.4336 43.0184 101.562 44.8471 103.346C46.6754 105.13 48.8381 106.536 51.2111 107.482C53.5841 108.429 56.1214 108.898 58.6777 108.863L58.5601 98.6743C57.3404 98.6913 56.1297 98.4676 54.9974 98.016C53.8654 97.5643 52.8334 96.8937 51.9611 96.0423C51.0887 95.191 50.3927 94.1756 49.9131 93.0543C49.4331 91.9326 49.1791 90.7273 49.1651 89.5063C49.1507 88.2857 49.3771 87.0733 49.8307 85.939C50.2847 84.8046 50.9567 83.7703 51.8094 82.8953C52.6617 82.02 53.6777 81.321 54.7994 80.8383C55.9207 80.3556 57.1257 80.0983 58.3454 80.0813L58.2277 69.8933Z" fill="white"/>
<path d="M75.9121 41.0457H61.0206V108.645H75.9121V41.0457Z" fill="white"/>
<path d="M111.638 41.3173H95.257L85.5776 57.7927L75.8983 74.268L95.257 108.917H111.638L95.257 74.268L111.638 41.3173Z" fill="white"/>
</g>
<defs>
<clipPath id="clip0">
<rect width="150" height="150" fill="white"/>
</clipPath>
</defs>
</svg>
